src/img/git.svg

<svg width="38" height="38" viewBox="0 0 38 38" fill="none" xmlns="http://www.w3.org/2000/svg">
<path d="M34.2622 17.5939L34.2635 17.5945C35.0245 18.3598 35.0259 19.6309 34.2622 20.3949L20.4013 34.2606C19.6392 35.0257 18.3622 35.0238 17.6 34.26L3.74037 20.3949C2.97666 19.6309 2.97811 18.3598 3.73908 17.5945L13.4996 7.83105L16.7343 11.0653C16.5026 11.4578 16.3604 11.9094 16.3604 12.3973C16.3604 13.6238 17.2053 14.648 18.3405 14.943V23.0491C17.2053 23.3441 16.3604 24.3683 16.3604 25.5948C16.3604 27.0505 17.5451 28.2343 19.0006 28.2343C20.456 28.2343 21.6407 27.0505 21.6407 25.5948C21.6407 24.3683 20.7959 23.3441 19.6606 23.0491V14.943C19.8939 14.8824 20.1128 14.7902 20.3165 14.6718L23.3259 17.6804C23.0999 18.0693 22.9608 18.5148 22.9608 18.996C22.9608 20.4518 24.1456 21.6355 25.601 21.6355C27.0564 21.6355 28.2412 20.4518 28.2412 18.996C28.2412 17.5403 27.0564 16.3566 25.601 16.3566C25.1061 16.3566 24.6479 16.5018 24.2516 16.7397L21.2575 13.7464C21.4954 13.3502 21.6407 12.8921 21.6407 12.3973C21.6407 10.9416 20.456 9.75781 19.0006 9.75781C18.5123 9.75781 18.0603 9.90006 17.6675 10.132L14.4327 6.89768L17.6013 3.72815C18.3464 2.98015 19.6549 2.97951 20.4026 3.7288L34.2622 17.5939Z" fill="#272727"/>
</svg>

<svg width="38" height="38" viewBox="0 0 38 38" fill="none" xmlns="http://www.w3.org/2000/svg"><path d="M34.262 17.594h.002a2 2 0 01-.002 2.8l-13.86 13.867a1.998 1.998 0 01-2.802-.001L3.74 20.395a2 2 0 010-2.8L13.5 7.83l3.234 3.234a2.61 2.61 0 00-.374 1.332c0 1.227.845 2.251 1.98 2.546v8.106a2.637 2.637 0 00-1.98 2.546 2.643 2.643 0 002.64 2.64 2.643 2.643 0 002.64-2.64c0-1.227-.844-2.25-1.98-2.546v-8.106a2.6 2.6 0 00.657-.271l3.009 3.008a2.608 2.608 0 00-.365 1.316 2.643 2.643 0 002.64 2.64 2.643 2.643 0 002.64-2.64 2.643 2.643 0 00-2.64-2.64c-.495 0-.953.146-1.35.384l-2.994-2.994a2.61 2.61 0 00.384-1.349A2.643 2.643 0 0019 9.757c-.489 0-.94.143-1.334.375l-3.234-3.234 3.168-3.17c.745-.748 2.054-.748 2.802 0l13.86 13.866z" fill="#272727"/></svg>
